setcps(138/60/4)

d1 $ stack [
    s "[reverbkick hh:7]*4",
    jux (rev) $ n (run 16) # s "noise2"
]

d2 $ n "0(5,8)*3" |+ "12 14 15" # s "midi" # midichan 1

do
    d3 $
        n "0*16"
        # s "superhat"
        # gain (segment 16 $ range 0.8 1.2 $ (fast 2 $ sine))
    d1 $ s "[reverbkick superhat]*4"
    d4 $ n "0 0 0 0 12 0 13 0" # s "midi"
    d5 $ ccn 20 # ccv 20
    --d4 $ n (scale "spanish" (segment 8 $ sine)) # s "midi"
