p "kick" $ silence

p "hh" $ silence

d1 $ jux' [id,rev,(# speed 2)] $ every 2 ("<0.25 0.125 0.5>" <~) $ sound "bd*2 [[~ lt] sn:3] lt:1 [ht mt*2]"
  # squiz "<1 2.5 2>"
  # room (slow 4 $ range 0 0.2 saw)
  # sz 0.5
  # orbit 1


d1 $ randslice 55 $ sound "bev*8" # speed 0.8

d2 $ sound "[reverbkick lighter [reverbkick, sd] lighter]*2"

d3 $ slow 4 $ s "jvbass*32" # n "c*8 f*8 a*8 *8"
