d1 $ "808:3(5, 12, 3)"

d2 $ "808:1*12"

d4 $ up (scale "phrygian" (every 3 (+2) $ "0(4, 6) 1(5,6,1) 5(2,6,2) 4(3, 6, 3)")) # s "808"

d5 $ "[gabba <808:1 ~>]*4"

d6 $ "juno:10" # legato 1 # gain 0.6

