
d1 $ off 0.5 (#n "0 4 7 8") $ s "noise2(3,8)" # speed "[[0.5,0.25][0.5,0.75]]/2"

d2 $ slow 2 $ stack [up (off 0.25 (+12) $ off 0.125 (+7) $ "0(3,8) 9(3,8) 5(3,8) 7(3,8)"), -up (stack[12] - "0(3,8) 9(3,8) 5(3,8) 7(3,8)")] # s "pluck:7"

d3 $ "bd(3,8) bd(6,12)" # gain 0.95

d4 $ "808:1*16" # gain (fast 4 $ range 0.8 1.1 $ tri)

d5 $ jux(rev) "casio" # gain 0.7
